docs/.gitbook/assets/icon-redo-16@dark.svg

<svg width="32" height="32" viewBox="0 0 16 16" fill="none" xmlns="http://www.w3.org/2000/svg">
<rect x="0" y="0" width="16" height="16" fill="#181c1f"/>
<path fill-rule="evenodd" clip-rule="evenodd" d="M3 9.25C3 11.8734 5.12665 14 7.75 14L12.25 14C12.6642 14 13 13.6642 13 13.25C13 12.8358 12.6642 12.5 12.25 12.5L7.75 12.5C5.95507 12.5 4.5 11.0449 4.5 9.25V9C4.5 7.20508 5.95507 5.75 7.75 5.75L10.2955 5.75L9.24828 6.69253C8.94039 6.96962 8.91544 7.44384 9.19253 7.75172C9.46962 8.05961 9.94384 8.08456 10.2517 7.80747L12.7517 5.55747C12.9098 5.41524 13 5.21262 13 5C13 4.78738 12.9098 4.58476 12.7517 4.44253L10.2517 2.19253C9.94384 1.91543 9.46962 1.94039 9.19253 2.24828C8.91543 2.55616 8.94039 3.03038 9.24828 3.30747L10.2955 4.25L7.75 4.25C5.12665 4.25 3 6.37665 3 9V9.25Z" fill="#fff"/>
</svg>

<svg xmlns="http://www.w3.org/2000/svg" width="32" height="32" fill="none" viewBox="0 0 16 16"><path fill="#181c1f" d="M0 0h16v16H0z"/><path fill="#fff" fill-rule="evenodd" d="M3 9.25A4.75 4.75 0 0 0 7.75 14h4.5a.75.75 0 0 0 0-1.5h-4.5A3.25 3.25 0 0 1 4.5 9.25V9a3.25 3.25 0 0 1 3.25-3.25h2.546l-1.048.943a.75.75 0 0 0 1.004 1.114l2.5-2.25a.75.75 0 0 0 0-1.114l-2.5-2.25a.75.75 0 1 0-1.004 1.114l1.048.943H7.75A4.75 4.75 0 0 0 3 9z" clip-rule="evenodd"/></svg>
